src/system_music.svg

<?xml version="1.0" encoding="UTF-8" standalone="no"?>
<svg
   xmlns:dc="http://purl.org/dc/elements/1.1/"
   xmlns:cc="http://creativecommons.org/ns#"
   xmlns:rdf="http://www.w3.org/1999/02/22-rdf-syntax-ns#"
   xmlns:svg="http://www.w3.org/2000/svg"
   xmlns="http://www.w3.org/2000/svg"
   xmlns:sodipodi="http://sodipodi.sourceforge.net/DTD/sodipodi-0.dtd"
   xmlns:inkscape="http://www.inkscape.org/namespaces/inkscape"
   width="192"
   height="192"
   version="1"
   id="svg22"
   sodipodi:docname="system_music.svg"
   inkscape:version="0.92.3 (2405546, 2018-03-11)">
  <metadata
     id="metadata28">
    <rdf:RDF>
      <cc:Work
         rdf:about="">
        <dc:format>image/svg+xml</dc:format>
        <dc:type
           rdf:resource="http://purl.org/dc/dcmitype/StillImage" />
      </cc:Work>
    </rdf:RDF>
  </metadata>
  <defs
     id="defs26">
    <filter
       inkscape:collect="always"
       style="color-interpolation-filters:sRGB"
       id="filter885"
       x="-0.037263158"
       width="1.0745263"
       y="-0.067428571"
       height="1.1348571">
      <feGaussianBlur
         inkscape:collect="always"
         stdDeviation="2.36"
         id="feGaussianBlur887" />
    </filter>
    <filter
       inkscape:collect="always"
       style="color-interpolation-filters:sRGB"
       id="filter901"
       x="-0.0496692"
       width="1.0993384"
       y="-0.046439344"
       height="1.0928787">
      <feGaussianBlur
         inkscape:collect="always"
         stdDeviation="2.3179174"
         id="feGaussianBlur903" />
    </filter>
  </defs>
  <sodipodi:namedview
     pagecolor="#ffffff"
     bordercolor="#666666"
     borderopacity="1"
     objecttolerance="10"
     gridtolerance="10"
     guidetolerance="10"
     inkscape:pageopacity="0"
     inkscape:pageshadow="2"
     inkscape:window-width="1920"
     inkscape:window-height="1018"
     id="namedview24"
     showgrid="false"
     inkscape:zoom="1"
     inkscape:cx="96"
     inkscape:cy="96"
     inkscape:window-x="0"
     inkscape:window-y="32"
     inkscape:window-maximized="1"
     inkscape:current-layer="svg22" />
  <path
     inkscape:connector-curvature="0"
     id="path2"
     d="m 159.8125,24.210938 c -1.172,-0.01728 -2.51532,0.101508 -4.04688,0.375 L 68.554688,41.757812 C 55.639872,43.04444 56,52 56,56 v 83.04 c 14.120328,3.64585 23.989548,-9.62341 24,4.96 V 63.718752 L 144,50.6875 V 119.04 c 14.12033,3.64585 23.98955,-9.62341 24,4.96 V 34.398438 c 0.001,-3.5 0.0164,-10.066569 -8.1875,-10.1875 z"
     style="opacity:0.2;stroke-width:4;filter:url(#filter901)" />
  <path
     inkscape:connector-curvature="0"
     id="path4"
     d="m 159.8125,20.210938 c -1.172,-0.01728 -2.51532,0.101508 -4.04688,0.375 L 68.554688,37.757812 C 55.639872,39.044442 56,48 56,52 v 83.04 c 14.120328,3.64585 23.989548,-9.62341 24,4.96 V 59.718752 L 144,46.6875 V 115.04 c 14.12033,3.64585 23.98955,-9.62341 24,4.96 V 30.398438 c 0.001,-3.5 0.0164,-10.066569 -8.1875,-10.1875 z"
     style="fill:#378006;stroke-width:4" />
  <path
     style="opacity:0.2;stroke-width:4;filter:url(#filter885)"
     d="M 136 92 A 32 32 0 0 0 104 124 A 32 32 0 0 0 136 156 A 32 32 0 0 0 168 124 A 32 32 0 0 0 136 92 z M 48 112 A 32 32 0 0 0 16 144 A 32 32 0 0 0 48 176 A 32 32 0 0 0 80 144 A 32 32 0 0 0 48 112 z "
     id="circle6" />
  <circle
     id="circle8"
     r="32"
     cy="140"
     cx="48"
     style="fill:#20bb63;stroke-width:4" />
  <circle
     id="circle12"
     r="32"
     cy="120"
     cx="136"
     style="fill:#20bb63;stroke-width:4" />
  <path
     style="opacity:0.1;fill:#ffffff;stroke-width:4"
     d="M 159.8125 20.210938 C 158.6405 20.193658 157.29718 20.312445 155.76562 20.585938 L 68.554688 37.757812 C 55.639871 39.044442 56 48 56 52 L 56 53 C 56 49 55.639871 40.044443 68.554688 38.757812 L 155.76562 21.585938 C 157.29718 21.312445 158.6405 21.193658 159.8125 21.210938 C 168.0164 21.331868 168.001 27.898438 168 31.398438 L 168 30.398438 C 168.001 26.898438 168.0164 20.331868 159.8125 20.210938 z "
     id="path14" />
  <path
     style="opacity:0.2;fill:#ffffff;stroke-width:4"
     d="M 136 88 A 32 32 0 0 0 104 120 A 32 32 0 0 0 104.01758 120.48633 A 32 32 0 0 1 136 89 A 32 32 0 0 1 167.97461 120.49805 A 32 32 0 0 0 168 120 A 32 32 0 0 0 136 88 z M 48 108 A 32 32 0 0 0 16 140 A 32 32 0 0 0 16.017578 140.48633 A 32 32 0 0 1 48 109 A 32 32 0 0 1 79.974609 140.49805 A 32 32 0 0 0 80 140 A 32 32 0 0 0 48 108 z "
     id="path16" />
</svg>

<?xml version="1.0" encoding="UTF-8" standalone="no"?>
<svg
   xmlns:dc="http://purl.org/dc/elements/1.1/"
   xmlns:cc="http://creativecommons.org/ns#"
   xmlns:rdf="http://www.w3.org/1999/02/22-rdf-syntax-ns#"
   xmlns:svg="http://www.w3.org/2000/svg"
   xmlns="http://www.w3.org/2000/svg"
   xmlns:sodipodi="http://sodipodi.sourceforge.net/DTD/sodipodi-0.dtd"
   xmlns:inkscape="http://www.inkscape.org/namespaces/inkscape"
   width="192"
   height="192"
   version="1"
   id="svg22"
   sodipodi:docname="system_music_3.svg"
   inkscape:version="0.92.3 (2405546, 2018-03-11)">
  <metadata
     id="metadata28">
    <rdf:RDF>
      <cc:Work
         rdf:about="">
        <dc:format>image/svg+xml</dc:format>
        <dc:type
           rdf:resource="http://purl.org/dc/dcmitype/StillImage" />
        <dc:title></dc:title>
      </cc:Work>
    </rdf:RDF>
  </metadata>
  <defs
     id="defs26">
    <filter
       inkscape:collect="always"
       style="color-interpolation-filters:sRGB"
       id="filter885"
       x="-0.037263158"
       width="1.0745263"
       y="-0.067428571"
       height="1.1348571">
      <feGaussianBlur
         inkscape:collect="always"
         stdDeviation="2.36"
         id="feGaussianBlur887" />
    </filter>
    <filter
       inkscape:collect="always"
       style="color-interpolation-filters:sRGB"
       id="filter901"
       x="-0.0496692"
       width="1.0993384"
       y="-0.046439344"
       height="1.0928787">
      <feGaussianBlur
         inkscape:collect="always"
         stdDeviation="2.3179174"
         id="feGaussianBlur903" />
    </filter>
  </defs>
  <sodipodi:namedview
     pagecolor="#ffffff"
     bordercolor="#666666"
     borderopacity="1"
     objecttolerance="10"
     gridtolerance="10"
     guidetolerance="10"
     inkscape:pageopacity="0"
     inkscape:pageshadow="2"
     inkscape:window-width="1920"
     inkscape:window-height="1018"
     id="namedview24"
     showgrid="false"
     inkscape:zoom="1"
     inkscape:cx="-120"
     inkscape:cy="96"
     inkscape:window-x="0"
     inkscape:window-y="32"
     inkscape:window-maximized="1"
     inkscape:current-layer="svg22" />
  <path
     inkscape:connector-curvature="0"
     id="path2"
     d="m 159.8125,24.210938 c -1.172,-0.01728 -2.51532,0.101508 -4.04688,0.375 L 68.554688,41.757812 C 55.639872,43.04444 56,52 56,56 v 83.04 c 14.120328,3.64585 23.989548,-9.62341 24,4.96 V 63.718752 L 144,50.6875 V 119.04 c 14.12033,3.64585 23.98955,-9.62341 24,4.96 V 34.398438 c 0.001,-3.5 0.0164,-10.066569 -8.1875,-10.1875 z"
     style="opacity:0.2;stroke-width:4;filter:url(#filter901)" />
  <path
     inkscape:connector-curvature="0"
     id="path4"
     d="m 159.8125,20.210938 c -1.172,-0.01728 -2.51532,0.101508 -4.04688,0.375 L 68.554688,37.757812 C 55.639872,39.044442 56,48 56,52 v 83.04 c 14.120328,3.64585 23.989548,-9.62341 24,4.96 V 59.718752 L 144,46.6875 V 115.04 c 14.12033,3.64585 23.98955,-9.62341 24,4.96 V 30.398438 c 0.001,-3.5 0.0164,-10.066569 -8.1875,-10.1875 z"
     style="fill:#5652d2;fill-opacity:1;stroke-width:4" />
  <path
     inkscape:connector-curvature="0"
     style="opacity:0.2;stroke-width:4;filter:url(#filter885)"
     d="m 136,92 a 32,32 0 0 0 -32,32 32,32 0 0 0 32,32 32,32 0 0 0 32,-32 32,32 0 0 0 -32,-32 z m -88,20 a 32,32 0 0 0 -32,32 32,32 0 0 0 32,32 32,32 0 0 0 32,-32 32,32 0 0 0 -32,-32 z"
     id="circle6" />
  <circle
     id="circle8"
     r="32"
     cy="140"
     cx="48"
     style="fill:#3c8cf8;fill-opacity:1;stroke-width:4" />
  <circle
     id="circle12"
     r="32"
     cy="120"
     cx="136"
     style="fill:#3c8cf8;fill-opacity:1;stroke-width:4" />
  <path
     inkscape:connector-curvature="0"
     style="opacity:0.1;fill:#ffffff;stroke-width:4"
     d="m 159.8125,20.210938 c -1.172,-0.01728 -2.51532,0.101507 -4.04688,0.375 L 68.554688,37.757812 C 55.639871,39.044442 56,48 56,52 v 1 C 56,49 55.639871,40.044443 68.554688,38.757812 L 155.76562,21.585938 c 1.53156,-0.273493 2.87488,-0.39228 4.04688,-0.375 8.2039,0.12093 8.1885,6.6875 8.1875,10.1875 v -1 c 0.001,-3.5 0.0164,-10.06657 -8.1875,-10.1875 z"
     id="path14" />
  <path
     inkscape:connector-curvature="0"
     style="opacity:0.2;fill:#ffffff;stroke-width:4"
     d="m 136,88 a 32,32 0 0 0 -32,32 32,32 0 0 0 0.0176,0.48633 A 32,32 0 0 1 136,89 32,32 0 0 1 167.97461,120.49805 32,32 0 0 0 168,120 32,32 0 0 0 136,88 Z m -88,20 a 32,32 0 0 0 -32,32 32,32 0 0 0 0.01758,0.48633 A 32,32 0 0 1 48,109 32,32 0 0 1 79.974609,140.49805 32,32 0 0 0 80,140 32,32 0 0 0 48,108 Z"
     id="path16" />
</svg>
